X:1
T:Once I Loved
Z:Jack Campin: "Embro, Embro", transcription (c) 2001
F:09love/abc/Once.abc
M:2/4
L:1/8
Q:1/4=84
K:F
F  F C (F/G/)|A     d  (cA)||G F C    (F/G/)|A F D2||
F  F C (F/G/)|A     d  c A ||G F C    (F/G/)|A G F2|]
P:Chorus
c> d c> F    |F/ F/ F  d2  ||D E F     G    |A d D2||
F  F C  C    |D     D Hd2  ||c F F/ E/ F/ G/|A d D2|]

